src/images/icons/icon-delivery.svg

<svg width="47" height="32" viewBox="0 0 47 32" fill="none" xmlns="http://www.w3.org/2000/svg">
<path d="M46.7 15.7569L40.2 7.55693C39.9 7.15693 39.5 6.95693 39 6.95693H30.7V1.85693C30.7 1.05693 30 0.356934 29.2 0.356934H1.5C0.7 0.356934 0 1.05693 0 1.85693C0 2.65693 0.7 3.35693 1.5 3.35693H27.7V8.45693V25.0569H15.8C15.2 23.1569 13.4 21.7569 11.3 21.7569C8.7 21.7569 6.5 23.9569 6.5 26.5569C6.5 29.1569 8.7 31.3569 11.3 31.3569C13.4 31.3569 15.2 29.9569 15.8 28.0569H29.2C30 28.0569 30.7 27.3569 30.7 26.5569V9.95693H38.3L44 17.2569V25.1569H41.8C41.2 23.2569 39.4 21.8569 37.3 21.8569C34.7 21.8569 32.5 24.0569 32.5 26.6569C32.5 29.2569 34.6 31.4569 37.3 31.4569C39.4 31.4569 41.2 30.0569 41.8 28.1569H45.5C46.3 28.1569 47 27.4569 47 26.6569V16.7569C47 16.3569 46.9 16.0569 46.7 15.7569ZM11.3 28.3569C10.3 28.3569 9.5 27.5569 9.5 26.5569C9.5 25.5569 10.3 24.7569 11.3 24.7569C12.3 24.7569 13.1 25.5569 13.1 26.5569C13.1 27.5569 12.2 28.3569 11.3 28.3569ZM37.4 28.3569C36.4 28.3569 35.6 27.5569 35.6 26.5569C35.6 25.5569 36.4 24.7569 37.4 24.7569C38.4 24.7569 39.2 25.5569 39.2 26.5569C39.2 27.5569 38.3 28.3569 37.4 28.3569Z" fill="black"/>
<path d="M19.4 9.95703C20.2 9.95703 20.9 9.25703 20.9 8.45703C20.9 7.65703 20.2 6.95703 19.4 6.95703H4.80005C4.00005 6.95703 3.30005 7.65703 3.30005 8.45703C3.30005 9.25703 4.00005 9.95703 4.80005 9.95703H19.4Z" fill="black"/>
<path d="M17.7 15.0571C17.7 14.2571 17 13.5571 16.2 13.5571H1.5C0.7 13.5571 0 14.2571 0 15.0571C0 15.8571 0.7 16.5571 1.5 16.5571H16.2C17 16.5571 17.7 15.8571 17.7 15.0571Z" fill="black"/>
</svg>

<svg xmlns="http://www.w3.org/2000/svg" width="47" height="32" fill="none"><path fill="#000" d="m46.7 15.76-6.5-8.2c-.3-.4-.7-.6-1.2-.6h-8.3v-5.1c0-.8-.7-1.5-1.5-1.5H1.5c-.8 0-1.5.7-1.5 1.5s.7 1.5 1.5 1.5h26.2V25.06H15.8c-.6-1.9-2.4-3.3-4.5-3.3-2.6 0-4.8 2.2-4.8 4.8 0 2.6 2.2 4.8 4.8 4.8 2.1 0 3.9-1.4 4.5-3.3h13.4c.8 0 1.5-.7 1.5-1.5V9.96h7.6l5.7 7.3v7.9h-2.2c-.6-1.9-2.4-3.3-4.5-3.3-2.6 0-4.8 2.2-4.8 4.8 0 2.6 2.1 4.8 4.8 4.8 2.1 0 3.9-1.4 4.5-3.3h3.7c.8 0 1.5-.7 1.5-1.5v-9.9c0-.4-.1-.7-.3-1Zm-35.4 12.6c-1 0-1.8-.8-1.8-1.8s.8-1.8 1.8-1.8 1.8.8 1.8 1.8-.9 1.8-1.8 1.8Zm26.1 0c-1 0-1.8-.8-1.8-1.8s.8-1.8 1.8-1.8 1.8.8 1.8 1.8-.9 1.8-1.8 1.8Z"/><path fill="#000" d="M19.4 9.96c.8 0 1.5-.7 1.5-1.5s-.7-1.5-1.5-1.5H4.8c-.8 0-1.5.7-1.5 1.5s.7 1.5 1.5 1.5h14.6ZM17.7 15.06c0-.8-.7-1.5-1.5-1.5H1.5c-.8 0-1.5.7-1.5 1.5s.7 1.5 1.5 1.5h14.7c.8 0 1.5-.7 1.5-1.5Z"/></svg>
